packages/dnb-ui-lib/assets/icons/confetti_medium.svg

<svg width="25" height="25" viewBox="0 0 25 25" fill="none" xmlns="http://www.w3.org/2000/svg">
<path d="M0.901927 22.5406L1.57717 22.9022L1.57763 22.9014L0.901927 22.5406ZM1.10312 23.8969L0.560734 24.4377L0.562277 24.4393L1.10312 23.8969ZM2.46039 24.0981L2.09999 23.4222L2.09946 23.4225L2.46039 24.0981ZM10.0629 14.9424L9.52099 15.4837L9.52124 15.484L10.0629 14.9424ZM7.97231 9.26714L7.43097 8.72525L7.42986 8.72637L7.97231 9.26714ZM13.6465 11.3577L14.1882 10.8162L14.1879 10.8158L13.6465 11.3577ZM16.5112 12.1686C16.2119 12.4675 16.2117 12.9525 16.5107 13.2518C16.8096 13.5511 17.2946 13.5513 17.5939 13.2524L16.5112 12.1686ZM23.6785 13.2524C23.9778 13.5513 24.4628 13.5511 24.7617 13.2518C25.0607 12.9525 25.0605 12.4675 24.7612 12.1686L23.6785 13.2524ZM11.7329 7.3915C11.4336 7.69055 11.4335 8.17553 11.7326 8.47473C12.0316 8.77393 12.5166 8.77406 12.8158 8.47501L11.7329 7.3915ZM12.8162 0.224623C12.5172 -0.0746559 12.0323 -0.074906 11.733 0.224064C11.4337 0.523034 11.4335 1.00801 11.7324 1.30729L12.8162 0.224623ZM18.4732 7.93253C18.0718 8.06613 17.8547 8.49981 17.9883 8.90118C18.1219 9.30256 18.5556 9.51963 18.957 9.38603L18.4732 7.93253ZM22.5406 8.19318C22.942 8.05958 23.1591 7.6259 23.0255 7.22453C22.8919 6.82315 22.4582 6.60608 22.0568 6.73968L22.5406 8.19318ZM15.5998 6.02943C15.466 6.43074 15.6829 6.86452 16.0842 6.99829C16.4855 7.13206 16.9193 6.91518 17.0531 6.51386L15.5998 6.02943ZM18.248 2.92919C18.3817 2.52787 18.1649 2.09409 17.7635 1.96032C17.3622 1.82655 16.9284 2.04344 16.7947 2.44476L18.248 2.92919ZM15.7919 8.29826L15.2503 7.75665L15.2489 7.75803L15.7919 8.29826ZM16.5139 8.29826L17.0569 7.75803L17.0555 7.75665L16.5139 8.29826ZM8.92322 6.0343L8.3816 5.49269L8.38022 5.49407L8.92322 6.0343ZM8.20118 6.0343L8.74417 5.49407L8.74279 5.49269L8.20118 6.0343ZM20.9481 4.77762L21.4883 5.32063L21.4897 5.31923L20.9481 4.77762ZM20.2261 4.77762L19.6844 5.31924L19.6858 5.32062L20.2261 4.77762ZM6.93702 9.60906L0.226225 22.1799L1.57763 22.9014L8.28842 10.3305L6.93702 9.60906ZM0.226684 22.1791C-0.172134 22.9239 -0.0348228 23.8405 0.560736 24.4377L1.6455 23.3561C1.52412 23.2343 1.49803 23.05 1.57717 22.9022L0.226684 22.1791ZM0.562277 24.4393C1.15984 25.0351 2.07621 25.1717 2.82132 24.7737L2.09946 23.4225C1.94994 23.5024 1.76537 23.4756 1.64396 23.3545L0.562277 24.4393ZM2.8208 24.7739L15.4305 18.0499L14.7097 16.6981L2.09999 23.4222L2.8208 24.7739ZM15.1954 16.4913C15.0392 16.6476 14.566 16.8009 13.5979 16.4443C12.6969 16.1123 11.6167 15.413 10.6045 14.4007L9.52124 15.484C10.6537 16.6164 11.9158 17.4571 13.0683 17.8817C14.1537 18.2816 15.4453 18.4079 16.2787 17.5745L15.1954 16.4913ZM10.6047 14.401C9.59284 13.3882 8.89365 12.3081 8.56171 11.4072C8.20518 10.4395 8.3578 9.96535 8.51476 9.80791L7.42986 8.72637C6.59822 9.56058 6.72429 10.8512 7.12426 11.9368C7.54884 13.0891 8.38922 14.3509 9.52099 15.4837L10.6047 14.401ZM8.51364 9.80903C8.66959 9.65324 9.14287 9.50015 10.1117 9.85728C11.0131 10.1895 12.0934 10.8888 13.1052 11.8996L14.1879 10.8158C13.0559 9.68497 11.794 8.84468 10.6415 8.4199C9.55664 8.02001 8.26464 7.89245 7.43098 8.72525L8.51364 9.80903ZM13.1048 11.8992C14.117 12.9119 14.8165 13.9924 15.1484 14.8936C15.5051 15.8619 15.3517 16.335 15.1954 16.4913L16.2787 17.5745C17.112 16.7412 16.9857 15.4495 16.5859 14.3641C16.1613 13.2114 15.3206 11.9491 14.1882 10.8162L13.1048 11.8992ZM17.5939 13.2524C19.2741 11.5739 21.9984 11.5739 23.6785 13.2524L24.7612 12.1686C22.4829 9.89264 18.7895 9.89264 16.5112 12.1686L17.5939 13.2524ZM12.8158 8.47501C15.0946 6.19741 15.094 2.50472 12.8162 0.224623L11.7324 1.30729C13.4131 2.98973 13.4125 5.71268 11.7329 7.3915L12.8158 8.47501ZM18.957 9.38603L22.5406 8.19318L22.0568 6.73968L18.4732 7.93253L18.957 9.38603ZM17.0531 6.51386L18.248 2.92919L16.7947 2.44476L15.5998 6.02943L17.0531 6.51386ZM15.9723 8.48073C16.0723 8.38075 16.2335 8.38075 16.3335 8.48073L15.2503 9.56395C15.7486 10.0622 16.5573 10.0622 17.0555 9.56395L15.9723 8.48073ZM16.3335 8.48073C16.4342 8.58147 16.4323 8.74062 16.3349 8.83848L15.2489 7.75803C14.7532 8.25624 14.7512 9.06492 15.2503 9.56395L16.3335 8.48073ZM16.3335 8.83987C16.2335 8.93985 16.0723 8.93985 15.9723 8.83987L17.0555 7.75665C16.5573 7.25837 15.7486 7.25837 15.2503 7.75665L16.3335 8.83987ZM15.9709 8.83848C15.8736 8.74062 15.8716 8.58147 15.9723 8.48073L17.0555 9.56395C17.5546 9.06492 17.5526 8.25624 17.0569 7.75803L15.9709 8.83848ZM8.38022 5.49407C8.48051 5.39327 8.64388 5.39327 8.74417 5.49407L7.65818 6.57452C8.15677 7.07567 8.96763 7.07567 9.46621 6.57452L8.38022 5.49407ZM8.74279 5.49269C8.84276 5.59266 8.84276 5.7539 8.74279 5.85387L7.65956 4.77065C7.16129 5.26892 7.16129 6.07764 7.65956 6.57591L8.74279 5.49269ZM8.74279 5.85387C8.64281 5.95385 8.48158 5.95385 8.3816 5.85387L9.46483 4.77065C8.96656 4.27237 8.15784 4.27237 7.65956 4.77065L8.74279 5.85387ZM8.3816 5.85387C8.28163 5.7539 8.28163 5.59266 8.3816 5.49269L9.46483 6.57591C9.9631 6.07764 9.9631 5.26892 9.46483 4.77065L8.3816 5.85387ZM20.4079 4.23462C20.5075 4.13548 20.6666 4.13548 20.7663 4.23462L19.6858 5.32062C20.1838 5.81602 20.9904 5.81602 21.4883 5.32062L20.4079 4.23462ZM20.7677 4.23601C20.8677 4.33599 20.8677 4.49722 20.7677 4.59719L19.6845 3.51397C19.1862 4.01224 19.1862 4.82096 19.6845 5.31923L20.7677 4.23601ZM20.7677 4.59719C20.6677 4.69717 20.5065 4.69717 20.4065 4.59719L21.4897 3.51397C20.9914 3.0157 20.1827 3.0157 19.6845 3.51397L20.7677 4.59719ZM20.4065 4.59719C20.3065 4.49722 20.3065 4.33599 20.4065 4.23601L21.4897 5.31923C21.988 4.82096 21.988 4.01224 21.4897 3.51397L20.4065 4.59719ZM19.7293 14.4527C19.8293 14.3528 19.9905 14.3528 20.0905 14.4527L19.0072 15.536C19.5055 16.0342 20.3142 16.0342 20.8125 15.536L19.7293 14.4527ZM20.0905 14.4527C20.1904 14.5527 20.1904 14.7139 20.0905 14.8139L19.0072 13.7307C18.509 14.229 18.509 15.0377 19.0072 15.536L20.0905 14.4527ZM20.0905 14.8139C19.9905 14.9139 19.8293 14.9139 19.7293 14.8139L20.8125 13.7307C20.3142 13.2324 19.5055 13.2324 19.0072 13.7307L20.0905 14.8139ZM19.7293 14.8139C19.6293 14.7139 19.6293 14.5527 19.7293 14.4527L20.8125 15.536C21.3108 15.0377 21.3108 14.229 20.8125 13.7307L19.7293 14.8139Z" fill="black"/>
</svg>

<svg width="24" height="24" viewBox="0 0 25 25" fill="none" xmlns="http://www.w3.org/2000/svg"><path d="M.902 22.54l.675.362-.675-.361zm.201 1.357l-.542.54.001.002.541-.542zm1.357.201l-.36-.676.36.676zm7.603-9.156l-.542.542.542-.542zm-2.09-5.675l-.542-.542-.001.001.542.541zm5.673 2.09l.542-.54v-.001l-.542.542zm2.865.812a.766.766 0 101.083 1.083L16.51 12.17zm7.168 1.083a.766.766 0 001.082-1.083l-1.082 1.083zm-11.946-5.86a.766.766 0 101.083 1.083l-1.083-1.083zM12.816.224a.766.766 0 10-1.084 1.082L12.816.225zm5.657 7.708a.766.766 0 10.484 1.453l-.484-1.453zm4.068.26a.766.766 0 10-.484-1.453l.484 1.453zM15.6 6.03a.766.766 0 101.453.485L15.6 6.029zm2.648-3.1a.766.766 0 00-1.453-.484l1.453.484zM15.792 8.3l-.542-.542-.001.001.543.54zm.722 0l.543-.541-.002-.001-.541.541zm-7.59-2.265l-.542-.541-.002.001.543.54zm-.723 0l.543-.54-.001-.001-.542.541zm12.747-1.256l.54.543.002-.002-.542-.541zm-.722 0l-.542.541.002.002.54-.543zM6.937 9.609L.227 22.18l1.35.722 6.711-12.57-1.351-.722zM.227 22.18a1.917 1.917 0 00.334 2.259l1.084-1.082a.385.385 0 01-.068-.454l-1.35-.723zm.335 2.26a1.919 1.919 0 002.26.335l-.723-1.352a.386.386 0 01-.455-.067L.562 24.439zm2.259.335l12.61-6.724-.721-1.352L2.1 23.422l.72 1.352zm12.374-8.283c-.156.157-.629.31-1.597-.047-.901-.332-1.981-1.031-2.994-2.043l-1.083 1.083c1.133 1.132 2.395 1.973 3.547 2.398 1.086.4 2.377.526 3.21-.308l-1.083-1.083zm-4.59-2.09c-1.012-1.013-1.711-2.093-2.043-2.994-.357-.967-.204-1.442-.047-1.6L7.43 8.728c-.832.834-.706 2.124-.306 3.21.425 1.152 1.265 2.414 2.397 3.547l1.084-1.083zM8.514 9.809c.156-.156.629-.309 1.598.048.901.333 1.981 1.032 2.993 2.043l1.083-1.084c-1.132-1.131-2.394-1.971-3.546-2.396-1.085-.4-2.377-.528-3.211.305L8.514 9.81zm4.59 2.09c1.013 1.013 1.713 2.093 2.044 2.995.357.968.204 1.441.047 1.597l1.084 1.084c.833-.834.707-2.125.307-3.21-.425-1.154-1.265-2.416-2.398-3.549L13.105 11.9zm4.49 1.353a4.306 4.306 0 016.084 0l1.083-1.083a5.838 5.838 0 00-8.25 0l1.083 1.083zm-4.778-4.777a5.834 5.834 0 000-8.25l-1.084 1.082a4.302 4.302 0 010 6.085l1.084 1.083zm6.141.911l3.584-1.193-.484-1.453-3.584 1.193.484 1.453zm-1.904-2.872l1.195-3.585-1.453-.484L15.6 6.029l1.453.485zm-1.08 1.967c.1-.1.26-.1.36 0L15.25 9.564a1.277 1.277 0 001.805 0L15.972 8.48zm.36 0c.101.1.1.26.002.357l-1.086-1.08a1.28 1.28 0 00.001 1.806l1.084-1.083zm0 .359c-.1.1-.26.1-.36 0l1.082-1.083a1.277 1.277 0 00-1.805 0l1.084 1.083zm-.362-.002a.253.253 0 01.001-.357l1.083 1.083a1.28 1.28 0 00.002-1.806l-1.086 1.08zM8.38 5.494c.1-.1.263-.1.363 0l-1.086 1.08c.499.502 1.31.502 1.808 0L8.38 5.495zm.362-.001c.1.1.1.26 0 .36L7.66 4.772a1.277 1.277 0 000 1.805l1.083-1.083zm0 .36c-.1.1-.261.1-.361 0l1.083-1.082a1.277 1.277 0 00-1.805 0l1.083 1.083zm-.361 0c-.1-.1-.1-.26 0-.36l1.083 1.083a1.277 1.277 0 000-1.805L8.382 5.854zm12.026-1.618c.1-.1.259-.1.358 0l-1.08 1.086a1.279 1.279 0 001.802 0l-1.08-1.086zm.36.001c.1.1.1.261 0 .361l-1.084-1.083a1.277 1.277 0 000 1.805l1.084-1.083zm0 .361c-.1.1-.262.1-.361 0l1.083-1.083a1.277 1.277 0 00-1.805 0l1.083 1.083zm-.361 0c-.1-.1-.1-.261 0-.361l1.083 1.083a1.277 1.277 0 000-1.805l-1.083 1.083zm-.678 9.856c.1-.1.262-.1.361 0l-1.083 1.083a1.277 1.277 0 001.805 0l-1.083-1.083zm.361 0c.1.1.1.26 0 .36l-1.083-1.082a1.277 1.277 0 000 1.805l1.083-1.083zm0 .36c-.1.1-.26.1-.36 0l1.082-1.082a1.277 1.277 0 00-1.805 0l1.083 1.083zm-.36 0c-.1-.1-.1-.26 0-.36l1.082 1.083a1.277 1.277 0 000-1.805l-1.083 1.083z" fill="#000"/></svg>
